cssgg/pin-top.svg

<svg
  width="24"
  height="24"
  viewBox="0 0 24 24"
  fill="none"
  xmlns="http://www.w3.org/2000/svg"
>
  <path
    d="M12 14C13.1046 14 14 14.8954 14 16C14 17.1046 13.1046 18 12 18C10.8954 18 10 17.1046 10 16C10 14.8954 10.8954 14 12 14Z"
    fill="currentColor"
  />
  <path
    fill-rule="evenodd"
    clip-rule="evenodd"
    d="M8 5C7.44772 5 7 4.55228 7 4C7 3.44772 7.44772 3 8 3H16C16.5523 3 17 3.44772 17 4C17 4.55228 16.5523 5 16 5H13V10.083C15.8377 10.559 18 13.027 18 16C18 19.3137 15.3137 22 12 22C8.68629 22 6 19.3137 6 16C6 13.027 8.16229 10.559 11 10.083V5H8ZM12 12C14.2091 12 16 13.7909 16 16C16 18.2091 14.2091 20 12 20C9.79086 20 8 18.2091 8 16C8 13.7909 9.79086 12 12 12Z"
    fill="currentColor"
  />
</svg>

<svg viewBox="0 0 24 24" xmlns="http://www.w3.org/2000/svg"><g><path d="M12 14c1.1 0 2 .89 2 2 0 1.1-.9 2-2 2 -1.11 0-2-.9-2-2 0-1.11.89-2 2-2Z"/><path fill-rule="evenodd" d="M8 5c-.56 0-1-.45-1-1 0-.56.44-1 1-1h8c.55 0 1 .44 1 1 0 .55-.45 1-1 1h-3v5.083c2.83.47 5 2.94 5 5.917 0 3.31-2.69 6-6 6 -3.32 0-6-2.69-6-6 0-2.98 2.16-5.45 5-5.917V5H8Zm4 7c2.2 0 4 1.79 4 4 0 2.2-1.8 4-4 4 -2.21 0-4-1.8-4-4 0-2.21 1.79-4 4-4Z"/></g></svg>
